X:560
%%etbk:tnset id:296,pos:1,rep:3x,ant:F | F | F | F | F | F | B | F || C | C | C | C | B | B | F | C
%%etbk:pldat 2014-03-05T18:49,2014-03-04T18:40,2014-03-02T15:06,2014-03-01T15:33
T:Sonny
H: Created 2014-03-02 /  Modified 2014-03-02
K:Fmaj
R:song
M:4/4
L:1/8
C:Christy Moore
cd2 | "F"F4F3G | A6c2 | F4F3G | A6c2 |
a4a2g2 | f6c2 | "B"d4c3B | "F"c8 | 
"C"g4 g3a | g6c | g4 g3a | g2f4e2 |
"B"f4 f2d2 | B4 c3d | "F"c2B4A2 | "C"G8 |


